assets/img/polkadot-logo-name.svg

<svg width="148" height="32" viewBox="0 0 148 32" fill="none" xmlns="http://www.w3.org/2000/svg">
<g clip-path="url(#clip0_178_787)">
<path d="M45.9635 4.77405C44.2307 4.77405 42.5608 4.99414 41.8807 5.1802C40.8908 5.46156 40.6439 5.89948 40.4576 6.80709L36.5297 25.1294C36.4669 25.5038 36.4062 25.8169 36.4062 26.1301C36.4062 27.0377 36.9943 27.6299 37.9527 27.6299C39.0054 27.6299 39.4386 26.9424 39.6541 25.8782L40.7674 20.6572C41.5395 20.7502 42.5608 20.8455 44.0152 20.8455C50.4189 20.8455 54.4074 17.3444 54.4074 12.0599C54.4074 7.43107 51.2202 4.77405 45.9635 4.77405ZM43.8603 17.8436C42.8705 17.8436 42.0961 17.8118 41.3869 17.7188L43.4586 7.99379C44.1072 7.90076 45.0679 7.77369 46.0577 7.77369C49.4605 7.77369 51.1932 9.40058 51.1932 12.0894C51.191 15.5292 48.7153 17.8436 43.8603 17.8436Z" fill="#111212"/>
<path d="M146.732 21.5942C146.207 21.5942 145.866 21.9074 145.217 22.6267C144.072 23.8156 143.361 24.4714 142.465 24.4714C141.662 24.4714 141.228 23.8156 141.228 22.7514C141.228 22.157 141.352 21.4377 141.507 20.6571L142.651 15.216H146.086C147.167 15.216 147.818 14.5898 147.818 13.4643C147.818 12.8381 147.417 12.3707 146.49 12.3707H143.269L143.825 9.83845C143.888 9.46406 143.949 9.11917 143.949 8.80605C143.949 7.93021 143.361 7.30396 142.402 7.30396C141.381 7.30396 140.919 7.99147 140.701 9.05564L139.989 12.3707H138.535C137.422 12.3707 136.773 12.9969 136.773 14.1224C136.773 14.7486 137.206 15.216 138.133 15.216H139.401L138.257 20.5936C138.133 21.1881 137.978 22.157 137.978 23.1576C137.978 25.6898 139.278 27.5345 142.061 27.5345C143.67 27.5345 145.091 26.7222 146.175 25.7511C147.228 24.814 148 23.6568 148 22.9057C148 22.1887 147.443 21.5942 146.732 21.5942Z" fill="#111212"/>
<path d="M75.5937 6.61873C75.5937 5.71112 74.9742 5.11664 74.0157 5.11664C72.9945 5.11664 72.5321 5.80415 72.3144 6.86832L68.4493 25.0341C68.3573 25.4085 68.2944 25.7216 68.2944 26.0347C68.2944 26.9423 68.9139 27.5346 69.8409 27.5346C70.8936 27.5346 71.356 26.847 71.5737 25.7829L75.4388 7.61937C75.5016 7.24271 75.5937 6.93185 75.5937 6.61873Z" fill="#111212"/>
<path d="M130.802 12.0576C125.853 12.0576 122.482 17.029 122.482 21.7509C122.482 21.8393 122.484 21.9278 122.486 22.0141C121.71 23.2053 120.718 24.4396 120.038 24.4396C119.544 24.4396 119.358 23.97 119.358 23.2507C119.358 22.3748 119.604 20.9045 119.883 19.6225L122.451 7.61485C122.513 7.24046 122.574 6.92734 122.574 6.61421C122.574 5.7066 121.986 5.11212 121.028 5.11212C119.975 5.11212 119.544 5.79963 119.326 6.86381L117.935 13.3668C117.192 12.5863 116.107 12.0531 114.469 12.0531C111.183 12.0531 107.877 14.6102 106.588 18.5334C105.17 22.241 103.902 24.4351 102.901 24.4351C102.53 24.4351 102.313 24.122 102.313 23.591C102.313 22.0277 103.179 18.2134 103.549 16.3687C103.673 15.6812 103.736 15.3999 103.736 14.9937C103.736 13.6187 101.478 11.9918 98.5395 11.9918C95.1413 11.9918 92.0641 14.1678 90.5221 17.3989C88.2304 21.4922 86.1273 24.4351 85.0858 24.4351C84.6212 24.4351 84.4663 23.8406 84.3429 23.2779L83.573 18.969L88.3045 15.0618C88.7377 14.6874 89.2943 14.1542 89.2943 13.4667C89.2943 12.6226 88.7377 12.0599 87.9027 12.0599C87.2832 12.0599 86.758 12.4343 86.2328 12.8722L79.1198 18.8125L81.5013 7.61939C81.5641 7.245 81.6562 6.93188 81.6562 6.61875C81.6562 5.71114 81.0367 5.11666 80.0782 5.11666C79.057 5.11666 78.5946 5.80417 78.3769 6.86834L74.5118 25.0341C74.4198 25.4085 74.3569 25.7216 74.3569 26.0348C74.3569 26.9424 74.9764 27.5346 75.9034 27.5346C76.9561 27.5346 77.4185 26.8471 77.6362 25.7829L78.1322 23.439L81.0389 21.0633L81.7504 24.6892C82.0287 26.1278 82.7717 27.5346 84.6885 27.5346C86.5964 27.5346 88.098 25.7738 89.6018 23.3936C90.0574 25.8873 91.8127 27.5346 94.248 27.5346C96.6923 27.5346 98.3622 26.0643 99.4441 24.0947V24.1583C99.4441 26.1913 100.465 27.5346 102.259 27.5346C103.882 27.5346 105.228 26.5453 106.431 24.4442C107.114 26.2753 108.64 27.5346 110.763 27.5346C113.268 27.5346 115.062 26.003 116.206 23.8769V24.0653C116.206 26.3161 117.32 27.5369 119.144 27.5369C120.756 27.5369 122.125 26.5907 123.294 25.0523C124.183 26.5907 125.777 27.5369 127.929 27.5369C132.879 27.5369 136.25 22.5654 136.25 17.8118C136.248 14.465 134.237 12.0576 130.802 12.0576ZM99.967 18.4063C99.0692 22.3136 97.1524 24.5349 94.9864 24.5349C93.532 24.5349 92.7284 23.4095 92.7284 21.7214C92.7284 18.4063 95.1099 14.8417 98.2949 14.8417C99.2533 14.8417 99.9962 15.123 100.645 15.5292L99.967 18.4063ZM117.194 16.7499C116.204 21.347 113.946 24.5349 111.473 24.5349C110.112 24.5349 109.307 23.4708 109.307 21.7214C109.307 18.3768 111.596 14.9052 114.658 14.9052C115.834 14.9052 116.729 15.3114 117.38 15.8423L117.194 16.7499ZM128.298 24.5349C126.504 24.5349 125.761 23.2212 125.761 21.5648C125.761 18.5311 127.833 15.0618 130.432 15.0618C132.225 15.0618 132.968 16.3755 132.968 18.0319C132.968 21.0951 130.897 24.5349 128.298 24.5349Z" fill="#111212"/>
<path d="M62.1086 12.0576C57.1594 12.0576 53.7881 17.029 53.7881 21.7508C53.7881 25.1271 55.7992 27.5345 59.2311 27.5345C64.1803 27.5345 67.5516 22.5631 67.5516 17.8095C67.5516 14.465 65.5405 12.0576 62.1086 12.0576ZM59.6037 24.5349C57.8103 24.5349 57.0674 23.2211 57.0674 21.5648C57.0674 18.5311 59.1391 15.0617 61.7382 15.0617C63.5316 15.0617 64.2745 16.3755 64.2745 18.0319C64.2723 21.0951 62.2006 24.5349 59.6037 24.5349Z" fill="#111212"/>
<path d="M14.8812 6.71176C18.0335 6.71176 20.589 5.20928 20.589 3.35588C20.589 1.50248 18.0335 0 14.8812 0C11.7288 0 9.17334 1.50248 9.17334 3.35588C9.17334 5.20928 11.7288 6.71176 14.8812 6.71176Z" fill="#E6007A"/>
<path d="M14.8812 31.9977C18.0335 31.9977 20.589 30.4952 20.589 28.6418C20.589 26.7884 18.0335 25.2859 14.8812 25.2859C11.7288 25.2859 9.17334 26.7884 9.17334 28.6418C9.17334 30.4952 11.7288 31.9977 14.8812 31.9977Z" fill="#E6007A"/>
<path d="M6.92705 11.3571C8.50323 8.59735 8.493 5.60841 6.9042 4.68108C5.3154 3.75375 2.74968 5.2392 1.1735 7.99893C-0.402675 10.7587 -0.392445 13.7476 1.19635 14.6749C2.78515 15.6023 5.35087 14.1168 6.92705 11.3571Z" fill="#E6007A"/>
<path d="M28.5865 23.9985C30.1627 21.2388 30.1533 18.2504 28.5656 17.3237C26.9779 16.397 24.413 17.8829 22.8368 20.6427C21.2607 23.4024 21.27 26.3908 22.8577 27.3175C24.4455 28.2442 27.0103 26.7583 28.5865 23.9985Z" fill="#E6007A"/>
<path d="M6.90493 27.3168C8.49373 26.3895 8.50396 23.4005 6.92778 20.6408C5.3516 17.8811 2.78588 16.3956 1.19708 17.3229C-0.391713 18.2503 -0.401943 21.2392 1.17423 23.9989C2.75041 26.7587 5.31613 28.2441 6.90493 27.3168Z" fill="#E6007A"/>
<path d="M28.5671 14.6757C30.1548 13.749 30.1641 10.7606 28.588 8.00085C27.0118 5.24112 24.4469 3.75516 22.8592 4.68186C21.2715 5.60856 21.2621 8.597 22.8383 11.3567C24.4145 14.1165 26.9793 15.6024 28.5671 14.6757Z" fill="#E6007A"/>
</g>
<defs>
<clipPath id="clip0_178_787">
<rect width="148" height="32" fill="white"/>
</clipPath>
</defs>
</svg>

<svg width="148" height="32" fill="none" xmlns="http://www.w3.org/2000/svg"><g clip-path="url(#a)"><path d="M45.964 4.774c-1.733 0-3.403.22-4.083.406-.99.282-1.237.72-1.423 1.627L36.53 25.13c-.063.375-.124.688-.124 1.001 0 .908.588 1.5 1.547 1.5 1.052 0 1.486-.688 1.701-1.752l1.113-5.22c.772.092 1.794.188 3.248.188 6.404 0 10.392-3.502 10.392-8.786 0-4.629-3.187-7.286-8.443-7.286Zm-2.104 13.07c-.99 0-1.764-.032-2.473-.125l2.072-9.725c.648-.093 1.609-.22 2.599-.22 3.403 0 5.135 1.627 5.135 4.315-.002 3.44-2.478 5.755-7.333 5.755Zm102.872 3.75c-.525 0-.866.313-1.515 1.033-1.145 1.189-1.856 1.844-2.752 1.844-.803 0-1.237-.655-1.237-1.72 0-.594.124-1.313.279-2.094l1.144-5.441h3.435c1.081 0 1.732-.626 1.732-1.752 0-.626-.401-1.093-1.328-1.093h-3.221l.556-2.533c.063-.374.124-.719.124-1.032 0-.876-.588-1.502-1.547-1.502-1.021 0-1.483.687-1.701 1.752l-.712 3.315h-1.454c-1.113 0-1.762.626-1.762 1.751 0 .627.433 1.094 1.36 1.094h1.268l-1.144 5.378a13.123 13.123 0 0 0-.279 2.564c0 2.532 1.3 4.377 4.083 4.377 1.609 0 3.03-.813 4.114-1.784 1.053-.937 1.825-2.094 1.825-2.845 0-.717-.557-1.312-1.268-1.312ZM75.594 6.619c0-.908-.62-1.502-1.578-1.502-1.022 0-1.484.687-1.702 1.751L68.45 25.034c-.092.375-.155.688-.155 1 0 .908.62 1.5 1.547 1.5 1.053 0 1.515-.687 1.733-1.751L75.44 7.619c.063-.376.155-.687.155-1Zm55.208 5.439c-4.949 0-8.32 4.971-8.32 9.693 0 .088.002.177.004.263-.776 1.191-1.768 2.426-2.448 2.426-.494 0-.68-.47-.68-1.19 0-.875.246-2.346.525-3.628l2.568-12.007c.062-.375.123-.688.123-1 0-.908-.588-1.503-1.546-1.503-1.053 0-1.484.688-1.702 1.752l-1.391 6.503c-.743-.78-1.828-1.314-3.466-1.314-3.286 0-6.592 2.557-7.881 6.48-1.418 3.708-2.686 5.902-3.687 5.902-.371 0-.588-.313-.588-.844 0-1.563.866-5.378 1.236-7.222.124-.688.187-.97.187-1.375 0-1.375-2.258-3.002-5.197-3.002-3.398 0-6.475 2.176-8.017 5.407-2.292 4.093-4.395 7.036-5.436 7.036-.465 0-.62-.594-.743-1.157l-.77-4.309 4.732-3.907c.433-.375.99-.908.99-1.595 0-.844-.557-1.407-1.392-1.407-.62 0-1.145.374-1.67.812l-7.113 5.94L81.5 7.62c.063-.374.155-.687.155-1 0-.908-.62-1.502-1.578-1.502-1.021 0-1.483.687-1.701 1.751l-3.865 18.166c-.092.375-.155.688-.155 1 0 .908.62 1.5 1.546 1.5 1.053 0 1.515-.687 1.733-1.751l.496-2.344 2.907-2.376.711 3.626c.279 1.439 1.022 2.846 2.939 2.846 1.907 0 3.409-1.761 4.913-4.141.455 2.493 2.21 4.14 4.646 4.14 2.444 0 4.114-1.47 5.196-3.44v.064c0 2.033 1.021 3.377 2.815 3.377 1.623 0 2.969-.99 4.172-3.09.683 1.83 2.209 3.09 4.332 3.09 2.505 0 4.299-1.532 5.443-3.658v.188c0 2.251 1.114 3.472 2.938 3.472 1.612 0 2.981-.946 4.15-2.485.889 1.539 2.483 2.485 4.635 2.485 4.95 0 8.321-4.972 8.321-9.725-.002-3.347-2.013-5.754-5.448-5.754Zm-30.835 6.348c-.898 3.908-2.815 6.129-4.98 6.129-1.455 0-2.259-1.125-2.259-2.814 0-3.315 2.382-6.88 5.567-6.88.958 0 1.701.282 2.35.688l-.678 2.877Zm17.227-1.656c-.99 4.597-3.248 7.785-5.721 7.785-1.361 0-2.166-1.064-2.166-2.814 0-3.344 2.289-6.816 5.351-6.816 1.176 0 2.071.406 2.722.937l-.186.908Zm11.104 7.785c-1.794 0-2.537-1.314-2.537-2.97 0-3.034 2.072-6.503 4.671-6.503 1.793 0 2.536 1.313 2.536 2.97 0 3.063-2.071 6.503-4.67 6.503ZM62.109 12.058c-4.95 0-8.32 4.971-8.32 9.693 0 3.376 2.01 5.784 5.442 5.784 4.95 0 8.32-4.972 8.32-9.726 0-3.344-2.01-5.751-5.442-5.751Zm-2.505 12.477c-1.794 0-2.537-1.314-2.537-2.97 0-3.034 2.072-6.503 4.671-6.503 1.794 0 2.537 1.313 2.537 2.97-.003 3.063-2.074 6.503-4.671 6.503Z" fill="#111212"/><path d="M14.881 6.712c3.152 0 5.708-1.503 5.708-3.356C20.589 1.502 18.034 0 14.881 0 11.73 0 9.173 1.502 9.173 3.356c0 1.853 2.556 3.356 5.708 3.356Zm0 25.286c3.152 0 5.708-1.503 5.708-3.356 0-1.854-2.555-3.356-5.708-3.356-3.152 0-5.708 1.502-5.708 3.356 0 1.853 2.556 3.356 5.708 3.356ZM6.927 11.357c1.576-2.76 1.566-5.749-.023-6.676C5.315 3.754 2.75 5.24 1.174 8c-1.577 2.76-1.566 5.749.022 6.676 1.59.927 4.155-.558 5.731-3.318Zm21.66 12.641c1.576-2.76 1.566-5.748-.021-6.674-1.588-.927-4.153.559-5.73 3.319-1.575 2.76-1.566 5.748.022 6.674 1.587.927 4.152-.559 5.729-3.319ZM6.905 27.317c1.589-.927 1.599-3.916.023-6.676-1.576-2.76-4.142-4.245-5.73-3.318-1.59.927-1.6 3.916-.024 6.676 1.576 2.76 4.142 4.245 5.73 3.318Zm21.662-12.641c1.588-.927 1.597-3.915.021-6.675s-4.141-4.246-5.729-3.32c-1.588.928-1.597 3.916-.02 6.676 1.576 2.76 4.14 4.245 5.728 3.319Z" fill="#E6007A"/></g><defs><clipPath id="a"><path fill="#fff" d="M0 0h148v32H0z"/></clipPath></defs></svg>
